X:912
T:Lag Nan Cruachan
C:Joe Buchanan's Scottish Tome - Page 524.2
I:524 2
Z:Carl Allison
R:Waltz
L:1/4
M:3/4
K:F
C | D2 D | F2 G | A2 A | A2 c | d2 e | f2 e | d2 =B | c2 A |
G2 F | G2 G | A2 c | =B2 d | A2 A | G> F E | D3 | D2 :|
